X: 41197
T: Triumph, The
R: barndance
M: 4/4
K: Gmajor
ge|d2BG c2AF|G2gf efge|d2BG c2AF|GBAF GBge|
dBGB cAFA|Ggfg efge|dBGB cAFA|GBAF G2G2||
A2Ac B2d2|A2Ac B2d2|A2Ac Bdge|dcBA G2GB|
A2Ac B2d2|A2Ac B2d2|A2Ac Bdge|dcBA G2GA||
B2Bc edcB|A2AB dcBA|B2Bd efge|dcBA G2GA|
BABc edcB|AGAB dcBA|BGBd efge|dcBA G3||
g|:dBBd cBcA|Ggfg e2eg|dBBd cBcA|GBAF G3:|
B|:A3c B2d2|A3c B2d2|A2c2 Bdge|dcBA G3:|
A|:B3d dcBA|B2d2 dcBA|B2d2 efge|1 dcBA G3:|2 fgaf agfe||
B3d dcBA|B2d2 dcBA|GABc defg|fgaf g4||
B2B2 cBcA|G2e2 egfe|d2Bd cBcA|G2B2 G4:|
A3c B2d2|A3c B2d2|A3c B2d2|dcBA B2G2|
A2Ac B2d2|A2Ac B2d2|A2Ac B2d2|dcBA G3||
A|B2Bc d2cB|A2Ab c2A2|B2Bc d2g2|dcBA G3A|
B2Bc d2cB|A2AB c2A2|B2Bc d2g2|fdef g4||

